svg/file-icons/Cucumber.svg

<svg version="1.1" xmlns="http://www.w3.org/2000/svg" width="435px" height="512px"><style type="text/css">.st0{fill-rule:evenodd;clip-rule:evenodd;}</style><path class="st0" d="M178.2004089,447.3547974V512c131.313385-20.3761902,248.8173218-127.5907288,256.2595825-268.4932251C441.8841858,102.9461823,341.0048218-1.1569893,220.072876,0.0097096C-25.838438,2.5096622-100.5261307,370.1602783,178.2004089,447.3547974z M241.8465729,163.7776642c22.6962738-4.6652985,45.542038-25.8495789,46.8972015-53.8710556c0.7327271-21.0804214-25.5877075-35.3983154-42.2222137-20.0430298C227.1838684,112.6496353,225.1567993,143.1736603,241.8465729,163.7776642z M192.0183258,163.7776642c16.6387939-23.7706146,11.1637878-53.4436493-5.6941223-72.436348c-16.341629-13.7714386-42.3325348-2.9999466-42.4592438,18.5652924C143.6854858,131.7336884,162.9885101,157.6478729,192.0183258,163.7776642z M161.4514008,198.2551117c-4.0200958-25.9941254-35.7561798-49.8348999-59.458931-46.9755402c-21.1292419,1.1161499-30.5669174,28.4439087-12.9804688,42.6658478C109.6757355,210.8282013,137.4178925,214.6675262,161.4514008,198.2551117z M328.9413452,292.2062073c24.1211548,1.3327332,35.9265747-29.3058472,17.1677246-43.0968323c-25.7124329-21.1054688-56.1344299-15.4013367-72.4394226-3.8787079C279.2668457,269.1349792,301.6234131,290.6968079,328.9413452,292.2062073z M159.7764893,246.5235596c-23.9008026-16.8350677-56.3310089-10.8845825-72.0206604,4.3096924c-17.4189606,15.1700745-5.694664,44.0449524,18.4238892,42.665863C129.7306671,292.8945618,155.2960815,273.6221924,159.7764893,246.5235596z M193.2744904,278.4152222c-18.7588654,4.1372986-34.6704102,16.4629822-42.7099457,35.7703552c-17.8456116,34.7325745,23.1930237,60.6414795,41.236969,32.299408C206.4024658,324.3198547,206.8685608,300.4959717,193.2744904,278.4152222z M243.1027527,279.7080994c-14.5470886,20.9746399-13.9721527,47.1673584,3.7685089,70.2478638c14.7391205,16.5491638,45.5375519,4.3209534,44.3848419-16.3768005C290.0097351,311.1994629,273.1679382,286.3113098,243.1027527,279.7080994z"/></svg>

<svg xmlns="http://www.w3.org/2000/svg" width="435" height="512"><path fill-rule="evenodd" d="M178.2 447.355V512c131.314-20.376 248.818-127.59 256.26-268.493C441.884 102.947 341.005-1.157 220.073.01c-245.911 2.5-320.6 370.15-41.873 447.345zm63.647-283.577c22.696-4.666 45.542-25.85 46.897-53.871.733-21.08-25.588-35.399-42.222-20.043-19.338 22.786-21.365 53.31-4.675 73.914zm-49.829 0c16.64-23.771 11.164-53.444-5.694-72.437-16.341-13.771-42.332-3-42.459 18.566-.18 21.827 19.124 47.74 48.153 53.87zm-30.567 34.477c-4.02-25.994-35.756-49.835-59.459-46.975-21.129 1.116-30.566 28.443-12.98 42.665 20.664 16.883 48.406 20.723 72.44 4.31zm167.49 93.951c24.122 1.333 35.927-29.306 17.168-43.097-25.712-21.105-56.134-15.401-72.44-3.878 5.598 23.904 27.954 45.466 55.272 46.975zm-169.165-45.682c-23.9-16.836-56.33-10.885-72.02 4.31-17.42 15.17-5.695 44.044 18.424 42.665 23.55-.604 49.116-19.877 53.596-46.975zm33.498 31.891c-18.758 4.138-34.67 16.463-42.71 35.77-17.845 34.733 23.194 60.642 41.238 32.3 14.6-22.165 15.067-45.989 1.472-68.07zm49.829 1.293c-14.547 20.975-13.972 47.167 3.768 70.248 14.74 16.55 45.538 4.32 44.385-16.377-1.246-22.38-18.088-47.268-48.153-53.87z" clip-rule="evenodd"/></svg>
